symbols/web/sms/materialsymbolsoutlined/sms_wght100_48px.svg

<svg xmlns="http://www.w3.org/2000/svg" height="48" width="48"><path d="M15.8 21.35q.55 0 .975-.425.425-.425.425-.975t-.425-.975q-.425-.425-.975-.425-.6 0-1 .425t-.4.975q0 .55.4.975.4.425 1 .425Zm8.25 0q.55 0 .975-.425.425-.425.425-.975t-.425-.975q-.425-.425-.975-.425t-.975.425q-.425.425-.425.975t.425.975q.425.425.975.425Zm8.15 0q.55 0 .975-.425.425-.425.425-.975t-.425-.975q-.425-.425-.975-.425t-.975.425q-.425.425-.425.975t.425.975q.425.425.975.425ZM6.6 39V9.3q0-1.15.775-1.925Q8.15 6.6 9.3 6.6h29.4q1.15 0 1.925.775.775.775.775 1.925v21.4q0 1.15-.775 1.925-.775.775-1.925.775H12.2Zm1.1-2.7 4-4h27q.7 0 1.15-.45.45-.45.45-1.15V9.3q0-.7-.45-1.15-.45-.45-1.15-.45H9.3q-.7 0-1.15.45-.45.45-.45 1.15Zm0-27V7.7 36.3Z"/></svg>

<svg xmlns="http://www.w3.org/2000/svg" height="48" width="48"><path d="M15.8 21.35Q16.35 21.35 16.775 20.925Q17.2 20.5 17.2 19.95Q17.2 19.4 16.775 18.975Q16.35 18.55 15.8 18.55Q15.2 18.55 14.8 18.975Q14.4 19.4 14.4 19.95Q14.4 20.5 14.8 20.925Q15.2 21.35 15.8 21.35ZM24.05 21.35Q24.6 21.35 25.025 20.925Q25.45 20.5 25.45 19.95Q25.45 19.4 25.025 18.975Q24.6 18.55 24.05 18.55Q23.5 18.55 23.075 18.975Q22.65 19.4 22.65 19.95Q22.65 20.5 23.075 20.925Q23.5 21.35 24.05 21.35ZM32.2 21.35Q32.75 21.35 33.175 20.925Q33.6 20.5 33.6 19.95Q33.6 19.4 33.175 18.975Q32.75 18.55 32.2 18.55Q31.65 18.55 31.225 18.975Q30.8 19.4 30.8 19.95Q30.8 20.5 31.225 20.925Q31.65 21.35 32.2 21.35ZM6.6 39V9.3Q6.6 8.15 7.375 7.375Q8.15 6.6 9.3 6.6H38.7Q39.85 6.6 40.625 7.375Q41.4 8.15 41.4 9.3V30.7Q41.4 31.85 40.625 32.625Q39.85 33.4 38.7 33.4H12.2ZM7.7 36.3 11.7 32.3H38.7Q39.4 32.3 39.85 31.85Q40.3 31.4 40.3 30.7V9.3Q40.3 8.6 39.85 8.15Q39.4 7.7 38.7 7.7H9.3Q8.6 7.7 8.15 8.15Q7.7 8.6 7.7 9.3ZM7.7 9.3Q7.7 8.6 7.7 8.15Q7.7 7.7 7.7 7.7Q7.7 7.7 7.7 8.15Q7.7 8.6 7.7 9.3V30.7Q7.7 31.4 7.7 31.85Q7.7 32.3 7.7 32.3V36.3Z"/></svg>
